X:1
T:Title
%%score { ( 1 2 ) | ( 3 4 ) }
L:1/8
M:4/4
K:F
V:1 treble nm="Grand Piano"
V:2 treble 
V:3 bass 
V:4 bass 
V:1
 z4 z2[Q:1/4=100] z G | A2 A2 A2 GF | A6 AB | [CAc]2 [CAc]2 [CGc]2 [DA]=B |[M:3/4] [Ec]6 | %5
[M:1/4] cd |[M:4/4] c2 AB A2 FG | z4 z2 F2 | A2 A2 [FA]2 FG |[M:3/4] F6 |] %10
V:2
 z4 z2 F2 | x8 | x8 | z4 z2 F2 |[M:3/4] x6 |[M:1/4] E2 |[M:4/4] x8 | [A,CF]2 [A,C]D C2 z G | x8 | %9
[M:3/4] x6 |] %10
V:3
 z4 z2 A,B, | [F,CF]2 [F,CF]2 [F,CF]2 [F,C]-[F,A,C] | [F,CF]6[K:treble] FG | F,2 F,2 E,2 z G, | %4
[M:3/4] [C,G,]6 |[M:1/4] [C,B,]2 |[M:4/4] [F,A,F]2 [F,F]-[F,DF] [F,CF]2 [F,C]-[F,B,C] | %7
 F,2 z B, [F,A,]2 A,B, | [F,CF]2 [F,CF]2 [C,C]2 A,B, |[M:3/4] [F,A,C]6 |] %10
V:4
 z4 z2 F,2 | z4 z2 .B,2 | z4 z2[K:treble] [F,C]2 | z4 z2 D,2 |[M:3/4] x6 |[M:1/4] x2 | %6
[M:4/4] z2 .C2 z2 .A,2 | z2 F,2 z2 F,2 | z4 z2 [C,C]2 |[M:3/4] x6 |] %10

